X: 2
T: The Boys Of Ballinahinch
R: reel
M: 4/4
L: 1/8
K: Dmaj
ag|f3d edBA|3(Bcd ef geag|f3d edBA|dBAG FDD2:|||fgaf d3g|fgaf g3a|fgaf gfef|3(gfe 3(fed ed 3(Bcd||fgaf d3g|fgaf g3a|b2 af gfed|3(Bcd ef g2 ag||


Tune 1348	Setting 14695

